images/Vector 2.8 (Stroke)_animated.svg

<svg width="887" height="226" fill="none" xmlns="http://www.w3.org/2000/svg"><path fill-rule="evenodd" clip-rule="evenodd" d="M886.5 124.659c0 .322-.224.582-.5.582-7.765 0-11.904 2-18.521 5.197l-1.6.771c-.922.442-1.972.169-3.021-.458-1.059-.633-2.216-1.684-3.421-2.999-2.415-2.635-5.118-6.434-7.756-10.411-1.769-2.666-3.521-5.43-5.143-7.991-.798-1.258-1.564-2.468-2.286-3.592-1.099-1.711-2.094-3.226-2.947-4.429-.862-1.216-1.549-2.075-2.035-2.507-12.966-11.555-31.086-2.146-34.189 14.128-.764 4.009-1.589 7.021-2.487 9.229-.897 2.205-1.885 3.656-2.998 4.48-2.273 1.683-4.797.583-7.365-1.024-.766-.479-1.545-1.009-2.342-1.551-1.964-1.335-4.042-2.749-6.323-3.681-3.16-1.291-6.631-1.614-10.506.644-1.183.689-2.849 2.334-4.717 4.478-1.853 2.127-3.858 4.69-5.713 7.157a377.206 377.206 0 00-4.787 6.544l-.005.007c-.619.861-1.126 1.566-1.48 2.044-.176.237-.32.427-.423.553a1.826 1.826 0 01-.154.17l-.001.002c-.017.016-.079.076-.166.114a.446.446 0 01-.362.001c-.237-.105-.308-.351-.322-.479-.619-5.77-3.397-11.992-7.309-16.538-3.915-4.548-8.888-7.335-13.881-6.44-8.079 1.448-12.745 7.13-16.634 13.966-1.244 2.187-2.395 4.465-3.553 6.758a276.268 276.268 0 01-2.016 3.941c-1.875 3.571-3.889 7.028-6.375 9.924-.307.359-.65.588-1.026.671-.374.082-.735.008-1.065-.147-.637-.301-1.235-.943-1.765-1.594-.271-.334-.54-.689-.798-1.031l-.002-.003c-.26-.344-.508-.673-.751-.97a7.079 7.079 0 00-.682-.746c-.215-.196-.39-.306-.527-.352-1.876-.625-4.395-.768-6.949-.606-2.547.161-5.084.623-6.978 1.174-3.039.886-6.897 3.215-11.205 6.183-2.338 1.612-4.77 3.383-7.257 5.194-2.108 1.535-4.255 3.099-6.419 4.619-4.683 3.291-9.379 6.327-13.665 8.218-4.267 1.882-8.232 2.676-11.399 1.316-2.421-1.039-4.558-2.15-6.569-3.225l-1.048-.563c-1.627-.875-3.184-1.712-4.775-2.462-3.841-1.811-7.862-3.106-13.389-3.106-2.541 0-3.975.632-4.926 1.416-.482.396-.858.846-1.201 1.314-.15.204-.29.408-.433.615l-.067.097c-.164.237-.333.478-.51.708-.357.46-.764.895-1.299 1.207-.538.314-1.174.487-1.969.479-1.563-.016-3.784-.732-7.207-2.505-5.114-2.649-9.705-6.89-14.24-11.29-.53-.514-1.06-1.03-1.589-1.547-4.017-3.919-8.037-7.84-12.433-10.864-1.438-.989-3.981-3.148-7.193-5.876-1.119-.95-2.32-1.97-3.583-3.033-4.911-4.132-10.812-8.958-16.715-13.079-5.913-4.127-11.785-7.515-16.644-8.807-2.428-.647-4.56-.757-6.302-.215-1.72.536-3.083 1.716-3.998 3.73-2.757 6.069-2.562 12.751-2.362 19.576.016.533.031 1.066.045 1.601.195 7.317.124 14.729-4.178 21.175-5.992 8.978-10.212 20.084-10.212 31.766 0 2.97-.742 11.77-1.858 19.449-.558 3.839-1.215 7.436-1.929 9.899-.352 1.217-.738 2.227-1.167 2.843-.215.308-.486.585-.825.684-.374.109-.722-.028-1.006-.304-2.723-2.645-7.261-3.954-12.749-4.601-4.695-.554-9.995-.617-15.292-.68-.871-.01-1.741-.02-2.609-.033-6.128-.088-12.124-.285-16.941-1.383-4.787-1.091-8.597-3.113-10.094-7.039-.931-2.439-1.319-4.797-1.588-6.939a128.73 128.73 0 01-.171-1.431c-.183-1.578-.346-2.985-.682-4.242-.422-1.584-1.105-2.864-2.427-3.814-1.346-.968-3.401-1.629-6.631-1.827-4.576-.281-7.677-1.228-9.78-2.837-2.129-1.63-3.177-3.892-3.733-6.624-.48-2.355-.602-5.11-.736-8.143l-.06-1.332c-.168-3.586-.424-7.583-1.304-11.945-.142-.702-.287-1.743-.451-2.924l-.15-1.066c-.231-1.631-.509-3.438-.875-5.078-.37-1.656-.816-3.074-1.36-3.969-.269-.443-.537-.714-.795-.845-.242-.122-.516-.141-.86.014-8.319 3.77-16.874 6.409-25.455 9.055l-.552.171c-6.779 2.091-11.434 3.222-14.719 3.39-3.302.169-5.328-.633-6.722-2.534-.679-.927-1.184-2.082-1.624-3.426-.441-1.341-.83-2.908-1.262-4.669l-.054-.221c-.859-3.493-1.92-7.813-3.929-12.963-1.737-4.455-4.146-7.508-6.896-10.242-1.231-1.224-2.526-2.38-3.863-3.573l-.484-.433c-1.505-1.345-3.054-2.75-4.593-4.344-1.117-1.157-2.879-2.37-4.951-3.657-.909-.565-1.893-1.153-2.9-1.755a181.447 181.447 0 01-3.706-2.255c-2.211-1.394-4.327-2.866-5.938-4.427-1.596-1.547-2.787-3.267-2.98-5.18-.389-3.845-1.694-5.617-3.367-6.257-1.745-.668-4.06-.18-6.579.992-5.011 2.33-10.401 7.153-12.62 9.221a1465.862 1465.862 0 01-8.023 7.408c-19.344 17.774-36.781 33.795-49.565 59.867l-.096.195c-1.172 2.393-5.242 10.702-9.186 16.054-1.016 1.38-2.039 2.583-3.016 3.442-.961.845-1.951 1.421-2.887 1.398-1.002-.025-1.797-.726-2.343-2.022-.534-1.268-.864-3.17-.977-5.802-.339-7.899-2.832-16.344-6.054-24.545-2.517-6.406-5.463-12.624-8.148-18.294a824.5 824.5 0 01-2.181-4.627c-13.115-28.143-27.655-57.139-50.464-75.695a441.126 441.126 0 00-4.476-3.583c-3.574-2.834-6.172-4.894-8.51-7.391-3.237-3.459-5.98-7.752-10.21-16.07l-.941-1.855c-4.316-8.513-8.927-17.61-14.613-23.884-3.042-3.357-6.37-5.878-10.097-7.07-3.72-1.189-7.876-1.065-12.597.936-1.645.697-3.404 2.111-5.195 3.984-1.785 1.868-3.575 4.163-5.281 6.584-2.785 3.95-5.325 8.201-7.256 11.431-.437.732-.843 1.412-1.214 2.023C45.495 50.254 27.833 68 9.963 85.953a1872.552 1872.552 0 00-8.634 8.712c-.208.211-.524.187-.706-.056a.652.652 0 01.048-.822c2.882-2.933 5.77-5.835 8.65-8.729 17.876-17.96 35.434-35.602 49.142-58.233.365-.603.767-1.276 1.202-2.003 1.93-3.229 4.5-7.528 7.312-11.519 1.724-2.446 3.55-4.79 5.386-6.711 1.832-1.916 3.703-3.441 5.52-4.212 4.9-2.075 9.267-2.223 13.205-.964 3.931 1.256 7.399 3.902 10.52 7.347 5.794 6.392 10.474 15.628 14.77 24.103.321.634.64 1.264.958 1.888 4.214 8.288 6.897 12.463 10.025 15.805 2.281 2.436 4.795 4.43 8.338 7.24a439.061 439.061 0 014.544 3.638c23.027 18.733 37.663 47.968 50.771 76.094.69 1.479 1.417 3.014 2.166 4.596 2.688 5.675 5.658 11.946 8.193 18.396 3.24 8.248 5.795 16.852 6.144 24.972.11 2.578.432 4.291.876 5.347.432 1.027.941 1.357 1.467 1.37.591.015 1.353-.363 2.263-1.163.896-.788 1.865-1.922 2.86-3.271 3.878-5.263 7.908-13.49 9.081-15.884l.09-.184c12.887-26.282 30.484-42.447 49.82-60.209 2.641-2.426 5.314-4.882 8.012-7.398 2.216-2.066 7.71-6.991 12.875-9.393 2.569-1.195 5.166-1.82 7.261-1.017 2.168.83 3.632 3.11 4.048 7.228.146 1.451 1.08 2.921 2.626 4.419 1.532 1.484 3.576 2.912 5.775 4.299 1.219.769 2.448 1.503 3.658 2.226 1 .597 1.986 1.186 2.943 1.781 2.068 1.285 3.928 2.554 5.145 3.814 1.509 1.564 3.034 2.946 4.537 4.291l.485.433c1.334 1.191 2.65 2.365 3.902 3.611 2.817 2.801 5.34 5.984 7.158 10.645 2.04 5.23 3.118 9.619 3.976 13.115l.057.231c.435 1.772.813 3.288 1.235 4.574.421 1.285.876 2.301 1.45 3.085 1.113 1.518 2.772 2.288 5.919 2.127 3.164-.162 7.723-1.26 14.506-3.353l.53-.163c8.597-2.652 17.105-5.276 25.371-9.022.568-.257 1.116-.251 1.619.003.486.245.885.699 1.214 1.241.655 1.076 1.136 2.669 1.511 4.348.379 1.695.663 3.546.895 5.181l.155 1.104c.163 1.171.299 2.151.432 2.81.902 4.466 1.161 8.547 1.329 12.148l.061 1.34c.136 3.051.253 5.686.71 7.93.515 2.53 1.451 4.496 3.309 5.919 1.885 1.442 4.776 2.371 9.284 2.647 3.302.203 5.551.883 7.103 1.999 1.575 1.133 2.381 2.677 2.857 4.46.363 1.36.541 2.898.726 4.495.052.448.104.9.161 1.355.265 2.107.637 4.34 1.512 6.634 1.282 3.36 4.63 5.288 9.373 6.369 4.714 1.075 10.621 1.274 16.761 1.362.863.012 1.731.022 2.6.033 5.293.062 10.645.125 15.39.685 5.503.65 10.314 1.977 13.289 4.866.093.091.122.069.122.068.036-.01.137-.065.292-.287.308-.444.648-1.281.996-2.482.687-2.372 1.333-5.893 1.89-9.721 1.112-7.654 1.844-16.38 1.844-19.254 0-12.008 4.334-23.358 10.422-32.481 4.06-6.082 4.164-13.095 3.969-20.424l-.047-1.649c-.201-6.763-.409-13.752 2.479-20.11 1.05-2.31 2.644-3.693 4.624-4.31 1.96-.61 4.272-.464 6.782.204 5.02 1.336 11.004 4.805 16.935 8.945 5.942 4.147 11.871 8.997 16.787 13.133 1.291 1.087 2.51 2.121 3.639 3.08 3.189 2.708 5.667 4.812 7.06 5.771 4.472 3.075 8.559 7.063 12.568 10.975.53.516 1.058 1.032 1.586 1.543 4.539 4.404 9.034 8.546 14.006 11.121 3.403 1.762 5.464 2.391 6.81 2.405.659.006 1.135-.136 1.512-.356.38-.222.691-.542 1.004-.946.157-.203.31-.422.474-.658.162-.234.334-.486.519-.738.372-.508.809-1.036 1.384-1.509 1.161-.956 2.812-1.63 5.503-1.63 5.683 0 9.833 1.338 13.764 3.192 1.616.762 3.198 1.613 4.827 2.488l1.038.558c2.005 1.072 4.114 2.167 6.498 3.191 2.813 1.208 6.484.546 10.699-1.313 4.197-1.851 8.828-4.841 13.503-8.126 2.123-1.491 4.268-3.053 6.382-4.592 2.509-1.827 4.973-3.621 7.301-5.226 4.303-2.965 8.275-5.379 11.471-6.31 1.96-.571 4.561-1.042 7.167-1.207 2.597-.165 5.245-.028 7.277.648.313.104.605.314.869.555.267.244.533.544.791.861.256.314.515.657.77.995l.009.011c.26.345.516.684.773.999.526.646.996 1.118 1.414 1.315.198.093.362.114.505.083.142-.032.31-.124.504-.35 2.4-2.797 4.365-6.16 6.229-9.708a285.707 285.707 0 001.985-3.881c1.169-2.315 2.347-4.646 3.603-6.854 3.955-6.951 8.83-12.953 17.316-14.474 5.419-.972 10.692 2.066 14.739 6.767 3.782 4.394 6.559 10.315 7.438 16.018.335-.457.777-1.072 1.306-1.808l.007-.009c1.239-1.723 2.941-4.091 4.8-6.563 1.861-2.475 3.885-5.062 5.763-7.218 1.863-2.139 3.63-3.909 4.971-4.69 4.171-2.43 7.932-2.072 11.285-.702 2.378.972 4.591 2.477 6.583 3.832.776.527 1.519 1.032 2.224 1.474 2.6 1.627 4.617 2.354 6.355 1.067.892-.661 1.776-1.894 2.631-3.996.853-2.098 1.658-5.016 2.415-8.983 3.251-17.05 22.188-26.906 35.772-14.801.587.522 1.339 1.477 2.199 2.691.869 1.226 1.876 2.759 2.976 4.472.73 1.137 1.5 2.352 2.3 3.614 1.619 2.555 3.357 5.299 5.12 7.956 2.634 3.969 5.296 7.705 7.648 10.272 1.178 1.285 2.256 2.252 3.195 2.814.95.567 1.664.666 2.183.416.554-.265 1.091-.525 1.613-.777 6.618-3.198 10.921-5.278 18.889-5.278.276 0 .5.261.5.583z" fill="#fff" style="animation:jrwKURkK_draw_0 7200ms linear 0ms infinite,jrwKURkK_fade 7200ms linear 0ms infinite"/><style data-made-with="vivus-instant">@keyframes jrwKURkK_fade{0%,94.44444444444444%{stroke-opacity:1}}@keyframes jrwKURkK_draw_0{11.11111111111111%{stroke-dashoffset:2767}38.88888888888889%{stroke-dashoffset:0}}</style></svg>

<svg width="887" height="226" viewBox="0 0 887 226" fill="none" xmlns="http://www.w3.org/2000/svg" style="">
<path fill-rule="evenodd" clip-rule="evenodd" d="M886.5 124.659C886.5 124.981 886.276 125.241 886 125.241C878.235 125.241 874.096 127.241 867.479 130.438C866.962 130.688 866.429 130.945 865.879 131.209C864.957 131.651 863.907 131.378 862.858 130.751C861.799 130.118 860.642 129.067 859.437 127.752C857.022 125.117 854.319 121.318 851.681 117.341C849.912 114.675 848.16 111.911 846.538 109.35C845.74 108.092 844.974 106.882 844.252 105.758C843.153 104.047 842.158 102.532 841.305 101.329C840.443 100.113 839.756 99.2544 839.27 98.8217C826.304 87.2668 808.184 96.6759 805.081 112.95C804.317 116.959 803.492 119.971 802.594 122.179C801.697 124.384 800.709 125.835 799.596 126.659C797.323 128.342 794.799 127.242 792.231 125.635C791.465 125.156 790.686 124.626 789.889 124.084C787.925 122.749 785.847 121.335 783.566 120.403C780.406 119.112 776.935 118.789 773.06 121.047C771.877 121.736 770.211 123.381 768.343 125.525C766.49 127.652 764.485 130.215 762.63 132.682C760.779 135.144 759.082 137.503 757.843 139.226L757.838 139.233C757.219 140.094 756.712 140.799 756.358 141.277C756.182 141.514 756.038 141.704 755.935 141.83C755.887 141.889 755.832 141.952 755.781 142L755.78 142.002C755.763 142.018 755.701 142.078 755.614 142.116C755.58 142.131 755.431 142.195 755.252 142.117C755.015 142.012 754.944 141.766 754.93 141.638C754.311 135.868 751.533 129.646 747.621 125.1C743.706 120.552 738.733 117.765 733.74 118.66C725.661 120.108 720.995 125.79 717.106 132.626C715.862 134.813 714.711 137.091 713.553 139.384C712.89 140.698 712.224 142.016 711.537 143.325C709.662 146.896 707.648 150.353 705.162 153.249C704.855 153.608 704.512 153.837 704.136 153.92C703.762 154.002 703.401 153.928 703.071 153.773C702.434 153.472 701.836 152.83 701.306 152.179C701.035 151.845 700.766 151.49 700.508 151.148L700.506 151.145C700.246 150.801 699.998 150.472 699.755 150.175C699.511 149.876 699.285 149.622 699.073 149.429C698.858 149.233 698.683 149.123 698.546 149.077C696.67 148.452 694.151 148.309 691.597 148.471C689.05 148.632 686.513 149.094 684.619 149.645C681.58 150.531 677.722 152.86 673.414 155.828C671.076 157.44 668.644 159.211 666.157 161.022C664.049 162.557 661.902 164.121 659.738 165.641C655.055 168.932 650.359 171.968 646.073 173.859C641.806 175.741 637.841 176.535 634.674 175.175C632.253 174.136 630.116 173.025 628.105 171.95C627.752 171.761 627.403 171.573 627.057 171.387C625.43 170.512 623.873 169.675 622.282 168.925C618.441 167.114 614.42 165.819 608.893 165.819C606.352 165.819 604.918 166.451 603.967 167.235C603.485 167.631 603.109 168.081 602.766 168.549C602.616 168.753 602.476 168.957 602.333 169.164L602.266 169.261C602.102 169.498 601.933 169.739 601.756 169.969C601.399 170.429 600.992 170.864 600.457 171.176C599.919 171.49 599.283 171.663 598.488 171.655C596.925 171.639 594.704 170.923 591.281 169.15C586.167 166.501 581.576 162.26 577.041 157.86C576.511 157.346 575.981 156.83 575.452 156.313C571.435 152.394 567.415 148.473 563.019 145.449C561.581 144.46 559.038 142.301 555.826 139.573C554.707 138.623 553.506 137.603 552.243 136.54C547.332 132.408 541.431 127.582 535.528 123.461C529.615 119.334 523.743 115.946 518.884 114.654C516.456 114.007 514.324 113.897 512.582 114.439C510.862 114.975 509.499 116.155 508.584 118.169C505.827 124.238 506.022 130.92 506.222 137.745C506.238 138.278 506.253 138.811 506.267 139.346C506.462 146.663 506.391 154.075 502.089 160.521C496.097 169.499 491.877 180.605 491.877 192.287C491.877 195.257 491.135 204.057 490.019 211.736C489.461 215.575 488.804 219.172 488.09 221.635C487.738 222.852 487.352 223.862 486.923 224.478C486.708 224.786 486.437 225.063 486.098 225.162C485.724 225.271 485.376 225.134 485.092 224.858C482.369 222.213 477.831 220.904 472.343 220.257C467.648 219.703 462.348 219.64 457.051 219.577C456.18 219.567 455.31 219.557 454.442 219.544C448.314 219.456 442.318 219.259 437.501 218.161C432.714 217.07 428.904 215.048 427.407 211.122C426.476 208.683 426.088 206.325 425.819 204.183C425.757 203.691 425.701 203.214 425.648 202.752C425.465 201.174 425.302 199.767 424.966 198.51C424.544 196.926 423.861 195.646 422.539 194.696C421.193 193.728 419.138 193.067 415.908 192.869C411.332 192.588 408.231 191.641 406.128 190.032C403.999 188.402 402.951 186.14 402.395 183.408C401.915 181.053 401.793 178.298 401.659 175.265C401.639 174.827 401.62 174.382 401.599 173.933C401.431 170.347 401.175 166.35 400.295 161.988C400.153 161.286 400.008 160.245 399.844 159.064C399.796 158.719 399.746 158.362 399.694 157.998C399.463 156.367 399.185 154.56 398.819 152.92C398.449 151.264 398.003 149.846 397.459 148.951C397.19 148.508 396.922 148.237 396.664 148.106C396.422 147.984 396.148 147.965 395.804 148.12C387.485 151.89 378.93 154.529 370.349 157.175L369.797 157.346C363.018 159.437 358.363 160.568 355.078 160.736C351.776 160.905 349.75 160.103 348.356 158.202C347.677 157.275 347.172 156.12 346.732 154.776C346.291 153.435 345.902 151.868 345.47 150.107L345.416 149.886C344.557 146.393 343.496 142.073 341.487 136.923C339.75 132.468 337.341 129.415 334.591 126.681C333.36 125.457 332.065 124.301 330.728 123.108C330.568 122.964 330.406 122.82 330.244 122.675C328.739 121.33 327.19 119.925 325.651 118.331C324.534 117.174 322.772 115.961 320.7 114.674C319.791 114.109 318.807 113.521 317.8 112.919C316.565 112.181 315.297 111.423 314.094 110.664C311.883 109.27 309.767 107.798 308.156 106.237C306.56 104.69 305.369 102.97 305.176 101.057C304.787 97.2121 303.482 95.4398 301.809 94.7998C300.064 94.1317 297.749 94.6204 295.23 95.7919C290.219 98.1227 284.829 102.945 282.61 105.013C279.905 107.535 277.228 109.995 274.587 112.421C255.243 130.195 237.806 146.216 225.022 172.288L224.926 172.483C223.754 174.876 219.684 183.185 215.74 188.537C214.724 189.917 213.701 191.12 212.724 191.979C211.763 192.824 210.773 193.4 209.837 193.377C208.835 193.352 208.04 192.651 207.494 191.355C206.96 190.087 206.63 188.185 206.517 185.553C206.178 177.654 203.685 169.209 200.463 161.008C197.946 154.602 195 148.384 192.315 142.714C191.562 141.126 190.831 139.581 190.134 138.087C177.019 109.944 162.479 80.9484 139.67 62.3924C138.015 61.0461 136.536 59.8731 135.194 58.8091C131.62 55.9748 129.022 53.9147 126.684 51.4176C123.447 47.9593 120.704 43.6657 116.474 35.3482C116.162 34.734 115.848 34.1153 115.533 33.4935C111.217 24.98 106.606 15.8829 100.92 9.60911C97.8776 6.25238 94.55 3.73103 90.8226 2.53965C87.1022 1.35049 82.9471 1.47442 78.2255 3.47526C76.5808 4.17222 74.8215 5.58612 73.0311 7.45894C71.2457 9.32656 69.4563 11.6218 67.7497 14.043C64.965 17.9937 62.4245 22.2443 60.4942 25.474C60.0568 26.2059 59.6506 26.8855 59.2801 27.4972C45.4955 50.2542 27.8332 67.9992 9.96283 85.9533C7.08514 88.8445 4.20202 91.7411 1.32885 94.6649C1.12085 94.8765 0.804989 94.8516 0.623349 94.6092C0.441769 94.3669 0.463131 93.9988 0.671139 93.7871C3.55298 90.8545 6.4414 87.9523 9.32159 85.0584C27.1965 67.0982 44.7552 49.4557 58.4631 26.8252C58.8283 26.2222 59.2305 25.5494 59.665 24.8223C61.5949 21.593 64.1641 17.294 66.9769 13.3033C68.7013 10.857 70.5262 8.51311 72.3631 6.59172C74.1949 4.67554 76.0657 3.1505 77.8838 2.38007C82.7816 0.304544 87.1489 0.157019 91.0872 1.41581C95.0184 2.67237 98.4856 5.31837 101.607 8.76289C107.401 15.1551 112.081 24.3907 116.377 32.8659C116.698 33.5001 117.017 34.13 117.335 34.7541C121.549 43.0415 124.232 47.2173 127.36 50.5585C129.641 52.9947 132.155 54.9888 135.698 57.7983C137.049 58.8694 138.549 60.0591 140.242 61.4369C163.269 80.1699 177.905 109.405 191.013 137.531C191.703 139.01 192.43 140.545 193.179 142.127C195.867 147.802 198.837 154.073 201.372 160.523C204.612 168.771 207.167 177.375 207.516 185.495C207.626 188.073 207.948 189.786 208.392 190.842C208.824 191.869 209.333 192.199 209.859 192.212C210.45 192.227 211.212 191.849 212.122 191.049C213.018 190.261 213.987 189.127 214.982 187.778C218.86 182.515 222.89 174.288 224.063 171.894L224.153 171.71C237.04 145.428 254.637 129.263 273.973 111.501C276.614 109.075 279.287 106.619 281.985 104.103C284.201 102.037 289.695 97.1116 294.86 94.7096C297.429 93.5147 300.026 92.8909 302.121 93.6926C304.289 94.5225 305.753 96.8024 306.169 100.921C306.315 102.372 307.249 103.842 308.795 105.34C310.327 106.824 312.371 108.252 314.57 109.639C315.789 110.408 317.018 111.142 318.228 111.865C319.228 112.462 320.214 113.051 321.171 113.646C323.239 114.931 325.099 116.2 326.316 117.46C327.825 119.024 329.35 120.406 330.853 121.751C331.015 121.895 331.177 122.04 331.338 122.184C332.672 123.375 333.988 124.549 335.24 125.795C338.057 128.596 340.58 131.779 342.398 136.44C344.438 141.67 345.516 146.059 346.374 149.555L346.431 149.786C346.866 151.558 347.244 153.074 347.666 154.36C348.087 155.645 348.542 156.661 349.116 157.445C350.229 158.963 351.888 159.733 355.035 159.572C358.199 159.41 362.758 158.312 369.541 156.219L370.071 156.056C378.668 153.404 387.176 150.78 395.442 147.034C396.01 146.777 396.558 146.783 397.061 147.037C397.547 147.282 397.946 147.736 398.275 148.278C398.93 149.354 399.411 150.947 399.786 152.626C400.165 154.321 400.449 156.172 400.681 157.807C400.735 158.19 400.787 158.559 400.836 158.911C400.999 160.082 401.135 161.062 401.268 161.721C402.17 166.187 402.429 170.268 402.597 173.869C402.618 174.325 402.638 174.771 402.658 175.209C402.794 178.26 402.911 180.895 403.368 183.139C403.883 185.669 404.819 187.635 406.677 189.058C408.562 190.5 411.453 191.429 415.961 191.705C419.263 191.908 421.512 192.588 423.064 193.704C424.639 194.837 425.445 196.381 425.921 198.164C426.284 199.524 426.462 201.062 426.647 202.659C426.699 203.107 426.751 203.559 426.808 204.014C427.073 206.121 427.445 208.354 428.32 210.648C429.602 214.008 432.95 215.936 437.693 217.017C442.407 218.092 448.314 218.291 454.454 218.379C455.317 218.391 456.185 218.401 457.054 218.412C462.347 218.474 467.699 218.537 472.444 219.097C477.947 219.747 482.758 221.074 485.733 223.963C485.826 224.054 485.855 224.032 485.855 224.031C485.891 224.021 485.992 223.966 486.147 223.744C486.455 223.3 486.795 222.463 487.143 221.262C487.83 218.89 488.476 215.369 489.033 211.541C490.145 203.887 490.877 195.161 490.877 192.287C490.877 180.279 495.211 168.929 501.299 159.806C505.359 153.724 505.463 146.711 505.268 139.382C505.253 138.834 505.237 138.284 505.221 137.733C505.02 130.97 504.812 123.981 507.7 117.623C508.75 115.313 510.344 113.93 512.324 113.313C514.284 112.703 516.596 112.849 519.106 113.517C524.126 114.853 530.11 118.322 536.041 122.462C541.983 126.609 547.912 131.459 552.828 135.595C554.119 136.682 555.338 137.716 556.467 138.675C559.656 141.383 562.134 143.487 563.527 144.446C567.999 147.521 572.086 151.509 576.095 155.421C576.625 155.937 577.153 156.453 577.681 156.964C582.22 161.368 586.715 165.51 591.687 168.085C595.09 169.847 597.151 170.476 598.497 170.49C599.156 170.496 599.632 170.354 600.009 170.134C600.389 169.912 600.7 169.592 601.013 169.188C601.17 168.985 601.323 168.766 601.487 168.53C601.649 168.296 601.821 168.044 602.006 167.792C602.378 167.284 602.815 166.756 603.39 166.283C604.551 165.327 606.202 164.653 608.893 164.653C614.576 164.653 618.726 165.991 622.657 167.845C624.273 168.607 625.855 169.458 627.484 170.333C627.828 170.518 628.173 170.704 628.522 170.891C630.527 171.963 632.636 173.058 635.02 174.082C637.833 175.29 641.504 174.628 645.719 172.769C649.916 170.918 654.547 167.928 659.222 164.643C661.345 163.152 663.49 161.59 665.604 160.051C668.113 158.224 670.577 156.43 672.905 154.825C677.208 151.86 681.18 149.446 684.376 148.515C686.336 147.944 688.937 147.473 691.543 147.308C694.14 147.143 696.788 147.28 698.82 147.956C699.133 148.06 699.425 148.27 699.689 148.511C699.956 148.755 700.222 149.055 700.48 149.372C700.736 149.686 700.995 150.029 701.25 150.367L701.259 150.378C701.519 150.723 701.775 151.062 702.032 151.377C702.558 152.023 703.028 152.495 703.446 152.692C703.644 152.785 703.808 152.806 703.951 152.775C704.093 152.743 704.261 152.651 704.455 152.425C706.855 149.628 708.82 146.265 710.684 142.717C711.351 141.445 712.009 140.143 712.669 138.836C713.838 136.521 715.016 134.19 716.272 131.982C720.227 125.031 725.102 119.029 733.588 117.508C739.007 116.536 744.28 119.574 748.327 124.275C752.109 128.669 754.886 134.59 755.765 140.293C756.1 139.836 756.542 139.221 757.071 138.485L757.078 138.476C758.317 136.753 760.019 134.385 761.878 131.913C763.739 129.438 765.763 126.851 767.641 124.695C769.504 122.556 771.271 120.786 772.612 120.005C776.783 117.575 780.544 117.933 783.897 119.303C786.275 120.275 788.488 121.78 790.48 123.135C791.256 123.662 791.999 124.167 792.704 124.609C795.304 126.236 797.321 126.963 799.059 125.676C799.951 125.015 800.835 123.782 801.69 121.68C802.543 119.582 803.348 116.664 804.105 112.697C807.356 95.6462 826.293 85.7906 839.877 97.896C840.464 98.4185 841.216 99.3726 842.076 100.587C842.945 101.813 843.952 103.346 845.052 105.059C845.782 106.196 846.552 107.411 847.352 108.673C848.971 111.228 850.709 113.972 852.472 116.629C855.106 120.598 857.768 124.334 860.12 126.901C861.298 128.186 862.376 129.153 863.315 129.715C864.265 130.282 864.979 130.381 865.498 130.131C866.052 129.866 866.589 129.606 867.111 129.354C873.729 126.156 878.032 124.076 886 124.076C886.276 124.076 886.5 124.337 886.5 124.659Z" fill="white" class="jrwKURkK_0"></path>
<style data-made-with="vivus-instant">.jrwKURkK_0{stroke-dasharray:2766 2768;stroke-dashoffset:2767;animation:jrwKURkK_draw_0 7200ms linear 0ms infinite,jrwKURkK_fade 7200ms linear 0ms infinite;}@keyframes jrwKURkK_draw{100%{stroke-dashoffset:0;}}@keyframes jrwKURkK_fade{0%{stroke-opacity:1;}94.44444444444444%{stroke-opacity:1;}100%{stroke-opacity:0;}}@keyframes jrwKURkK_draw_0{11.11111111111111%{stroke-dashoffset: 2767}38.88888888888889%{ stroke-dashoffset: 0;}100%{ stroke-dashoffset: 0;}}</style></svg>
